flaticon/office/analytics-15.svg

<svg xmlns="http://www.w3.org/2000/svg" width="32" height="32" viewBox="0 0 24 24">
    <path d="M 22.199219 0.800781 L 1.800781 0.800781 C 0.800781 0.800781 0 1.601562 0 2.601562 L 0 16.601562 C 0 17.601562 0.800781 18.398438 1.800781 18.398438 L 9.480469 18.398438 L 8.878906 20.800781 L 8.800781 20.800781 C 7.679688 20.800781 6.800781 21.679688 6.800781 22.800781 C 6.800781 23.039062 6.960938 23.199219 7.199219 23.199219 L 16.800781 23.199219 C 17.039062 23.199219 17.199219 23.039062 17.199219 22.800781 C 17.199219 21.679688 16.320312 20.800781 15.199219 20.800781 L 15.121094 20.800781 L 14.519531 18.398438 L 22.199219 18.398438 C 23.199219 18.398438 24 17.601562 24 16.601562 L 24 2.601562 C 24 1.601562 23.199219 0.800781 22.199219 0.800781 Z M 0.800781 2.601562 C 0.800781 2.039062 1.238281 1.601562 1.800781 1.601562 L 22.199219 1.601562 C 22.761719 1.601562 23.199219 2.039062 23.199219 2.601562 L 23.199219 14.398438 L 0.800781 14.398438 Z M 16.359375 22.398438 L 7.679688 22.398438 C 7.839844 21.921875 8.28125 21.601562 8.800781 21.601562 L 15.238281 21.601562 C 15.761719 21.601562 16.199219 21.921875 16.359375 22.398438 Z M 14.28125 20.800781 L 9.71875 20.800781 L 10.320312 18.398438 L 13.679688 18.398438 Z M 23.199219 16.601562 C 23.199219 17.160156 22.761719 17.601562 22.199219 17.601562 L 1.800781 17.601562 C 1.238281 17.601562 0.800781 17.160156 0.800781 16.601562 L 0.800781 15.199219 L 23.199219 15.199219 Z M 23.199219 16.601562"/>
    <path d="M11.71875 6.28125C11.800781 6.359375 11.878906 6.398438 12 6.398438 12.121094 6.398438 12.199219 6.359375 12.28125 6.28125L12.800781 5.761719 13.320312 6.28125C13.398438 6.359375 13.480469 6.398438 13.601562 6.398438 13.71875 6.398438 13.800781 6.359375 13.878906 6.28125 14.039062 6.121094 14.039062 5.878906 13.878906 5.71875L13.359375 5.199219 13.878906 4.679688C14.039062 4.519531 14.039062 4.28125 13.878906 4.121094 13.71875 3.960938 13.480469 3.960938 13.320312 4.121094L12.800781 4.640625 12.28125 4.121094C12.121094 3.960938 11.878906 3.960938 11.71875 4.121094 11.558594 4.28125 11.558594 4.519531 11.71875 4.679688L12.238281 5.199219 11.71875 5.71875C11.558594 5.878906 11.558594 6.121094 11.71875 6.28125zM21.480469 10.121094C21.320312 9.960938 21.078125 9.960938 20.921875 10.121094L20.398438 10.640625 19.878906 10.121094C19.71875 9.960938 19.480469 9.960938 19.320312 10.121094 19.160156 10.28125 19.160156 10.519531 19.320312 10.679688L19.839844 11.199219 19.320312 11.71875C19.160156 11.878906 19.160156 12.121094 19.320312 12.28125 19.398438 12.359375 19.480469 12.398438 19.601562 12.398438 19.71875 12.398438 19.800781 12.359375 19.878906 12.28125L20.398438 11.761719 20.921875 12.28125C21 12.359375 21.078125 12.398438 21.199219 12.398438 21.320312 12.398438 21.398438 12.359375 21.480469 12.28125 21.640625 12.121094 21.640625 11.878906 21.480469 11.71875L20.960938 11.199219 21.480469 10.679688C21.640625 10.519531 21.640625 10.28125 21.480469 10.121094zM20.75 3.789062C20.683594 3.671875 20.558594 3.601562 20.398438 3.601562 20.242188 3.601562 20.117188 3.671875 20.050781 3.789062L18.921875 4.921875C18.761719 5.078125 18.761719 5.320312 18.921875 5.480469 19 5.558594 19.078125 5.601562 19.199219 5.601562 19.320312 5.601562 19.398438 5.558594 19.480469 5.480469L20 4.960938 20 6C20 6.878906 19.28125 7.601562 18.398438 7.601562L14.800781 7.601562C13.601562 7.601562 12.597656 8.492188 12.425781 9.644531 11.726562 9.8125 11.199219 10.449219 11.199219 11.199219 11.199219 12.078125 11.921875 12.800781 12.800781 12.800781 13.679688 12.800781 14.398438 12.078125 14.398438 11.199219 14.398438 10.472656 13.90625 9.851562 13.238281 9.660156 13.394531 8.941406 14.035156 8.398438 14.800781 8.398438L18.398438 8.398438C19.71875 8.398438 20.800781 7.320312 20.800781 6L20.800781 4.960938 21.320312 5.480469C21.398438 5.558594 21.480469 5.601562 21.601562 5.601562 21.71875 5.601562 21.800781 5.558594 21.878906 5.480469 22.039062 5.320312 22.039062 5.078125 21.878906 4.921875zM13.601562 11.199219C13.601562 11.640625 13.238281 12 12.800781 12 12.359375 12 12 11.640625 12 11.199219 12 10.761719 12.359375 10.398438 12.800781 10.398438 13.238281 10.398438 13.601562 10.761719 13.601562 11.199219zM2.398438 4.398438L3.601562 4.398438C3.839844 4.398438 4 4.238281 4 4 4 3.761719 3.839844 3.601562 3.601562 3.601562L2.398438 3.601562C2.160156 3.601562 2 3.761719 2 4 2 4.238281 2.160156 4.398438 2.398438 4.398438zM9.199219 3.601562L5.199219 3.601562C4.960938 3.601562 4.800781 3.761719 4.800781 4 4.800781 4.238281 4.960938 4.398438 5.199219 4.398438L9.199219 4.398438C9.441406 4.398438 9.601562 4.238281 9.601562 4 9.601562 3.761719 9.441406 3.601562 9.199219 3.601562zM2.398438 6L4.398438 6C4.640625 6 4.800781 5.839844 4.800781 5.601562 4.800781 5.359375 4.640625 5.199219 4.398438 5.199219L2.398438 5.199219C2.160156 5.199219 2 5.359375 2 5.601562 2 5.839844 2.160156 6 2.398438 6zM7.199219 6C7.441406 6 7.601562 5.839844 7.601562 5.601562 7.601562 5.359375 7.441406 5.199219 7.199219 5.199219L6 5.199219C5.761719 5.199219 5.601562 5.359375 5.601562 5.601562 5.601562 5.839844 5.761719 6 6 6zM9.199219 5.199219L8.800781 5.199219C8.558594 5.199219 8.398438 5.359375 8.398438 5.601562 8.398438 5.839844 8.558594 6 8.800781 6L9.199219 6C9.441406 6 9.601562 5.839844 9.601562 5.601562 9.601562 5.359375 9.441406 5.199219 9.199219 5.199219zM2.398438 7.601562L3.601562 7.601562C3.839844 7.601562 4 7.441406 4 7.199219 4 6.960938 3.839844 6.800781 3.601562 6.800781L2.398438 6.800781C2.160156 6.800781 2 6.960938 2 7.199219 2 7.441406 2.160156 7.601562 2.398438 7.601562zM9.199219 6.800781L5.199219 6.800781C4.960938 6.800781 4.800781 6.960938 4.800781 7.199219 4.800781 7.441406 4.960938 7.601562 5.199219 7.601562L9.199219 7.601562C9.441406 7.601562 9.601562 7.441406 9.601562 7.199219 9.601562 6.960938 9.441406 6.800781 9.199219 6.800781zM2.398438 9.199219L4.398438 9.199219C4.640625 9.199219 4.800781 9.039062 4.800781 8.800781 4.800781 8.558594 4.640625 8.398438 4.398438 8.398438L2.398438 8.398438C2.160156 8.398438 2 8.558594 2 8.800781 2 9.039062 2.160156 9.199219 2.398438 9.199219zM7.199219 9.199219C7.441406 9.199219 7.601562 9.039062 7.601562 8.800781 7.601562 8.558594 7.441406 8.398438 7.199219 8.398438L6 8.398438C5.761719 8.398438 5.601562 8.558594 5.601562 8.800781 5.601562 9.039062 5.761719 9.199219 6 9.199219zM9.199219 8.398438L8.800781 8.398438C8.558594 8.398438 8.398438 8.558594 8.398438 8.800781 8.398438 9.039062 8.558594 9.199219 8.800781 9.199219L9.199219 9.199219C9.441406 9.199219 9.601562 9.039062 9.601562 8.800781 9.601562 8.558594 9.441406 8.398438 9.199219 8.398438zM2.398438 10.800781L3.601562 10.800781C3.839844 10.800781 4 10.640625 4 10.398438 4 10.160156 3.839844 10 3.601562 10L2.398438 10C2.160156 10 2 10.160156 2 10.398438 2 10.640625 2.160156 10.800781 2.398438 10.800781zM9.199219 10L5.199219 10C4.960938 10 4.800781 10.160156 4.800781 10.398438 4.800781 10.640625 4.960938 10.800781 5.199219 10.800781L9.199219 10.800781C9.441406 10.800781 9.601562 10.640625 9.601562 10.398438 9.601562 10.160156 9.441406 10 9.199219 10zM4.398438 11.601562L2.398438 11.601562C2.160156 11.601562 2 11.761719 2 12 2 12.238281 2.160156 12.398438 2.398438 12.398438L4.398438 12.398438C4.640625 12.398438 4.800781 12.238281 4.800781 12 4.800781 11.761719 4.640625 11.601562 4.398438 11.601562zM7.199219 11.601562L6 11.601562C5.761719 11.601562 5.601562 11.761719 5.601562 12 5.601562 12.238281 5.761719 12.398438 6 12.398438L7.199219 12.398438C7.441406 12.398438 7.601562 12.238281 7.601562 12 7.601562 11.761719 7.441406 11.601562 7.199219 11.601562zM9.199219 11.601562L8.800781 11.601562C8.558594 11.601562 8.398438 11.761719 8.398438 12 8.398438 12.238281 8.558594 12.398438 8.800781 12.398438L9.199219 12.398438C9.441406 12.398438 9.601562 12.238281 9.601562 12 9.601562 11.761719 9.441406 11.601562 9.199219 11.601562zM9.199219 11.601562"/>
</svg>

<svg xmlns="http://www.w3.org/2000/svg" width="32" height="32" viewBox="0 0 24 24">
    <path d="M22.2.8H1.8C.8.8 0 1.603 0 2.603v14c0 1 .8 1.796 1.8 1.796h7.68l-.601 2.403H8.8c-1.121 0-2 .879-2 2 0 .238.16.398.398.398h9.602c.238 0 .398-.16.398-.398 0-1.121-.879-2-2-2h-.078l-.601-2.403h7.68c1 0 1.8-.796 1.8-1.796v-14c0-1-.8-1.801-1.8-1.801zM.8 2.603c0-.563.438-1 1-1h20.4c.562 0 1 .437 1 1v11.796H.8zm15.56 19.796H7.68c.16-.476.601-.796 1.12-.796h6.438c.524 0 .961.32 1.121.796zm-2.079-1.597H9.72l.601-2.403h3.36zm8.918-4.2a.99.99 0 0 1-1 1H1.801a.99.99 0 0 1-1-1V15.2h22.398zm0 0"/>
    <path d="M11.719 6.281c.082.078.16.117.281.117.121 0 .2-.039.281-.117l.52-.52.52.52c.077.078.16.117.28.117.118 0 .2-.039.278-.117a.39.39 0 0 0 0-.562l-.52-.52.52-.52a.385.385 0 0 0 0-.558.385.385 0 0 0-.559 0l-.52.52-.519-.52a.39.39 0 0 0-.562 0 .385.385 0 0 0 0 .559l.52.52-.52.519a.39.39 0 0 0 0 .562zm0 0M21.48 10.121a.385.385 0 0 0-.558 0l-.524.52-.52-.52a.385.385 0 0 0-.558 0 .385.385 0 0 0 0 .559l.52.52-.52.519a.39.39 0 0 0 0 .562c.078.078.16.117.282.117.117 0 .199-.039.277-.117l.52-.52.523.52a.357.357 0 0 0 .277.117c.121 0 .2-.039.281-.117a.39.39 0 0 0 0-.562l-.52-.52.52-.52a.385.385 0 0 0 0-.558zm0 0M20.75 3.79c-.066-.118-.191-.188-.352-.188a.383.383 0 0 0-.347.187l-1.13 1.133a.385.385 0 0 0 0 .558.36.36 0 0 0 .278.122c.121 0 .2-.043.281-.122l.52-.52V6c0 .879-.719 1.602-1.602 1.602h-3.597c-1.2 0-2.203.89-2.375 2.043-.7.168-1.227.804-1.227 1.554 0 .88.723 1.602 1.602 1.602.879 0 1.597-.723 1.597-1.602 0-.726-.492-1.347-1.16-1.539a1.604 1.604 0 0 1 1.563-1.262h3.597A2.407 2.407 0 0 0 20.801 6V4.96l.52.52c.077.079.16.122.28.122.118 0 .2-.043.278-.122a.385.385 0 0 0 0-.558zm-7.148 7.41c0 .44-.364.8-.801.8-.442 0-.801-.36-.801-.8 0-.438.36-.802.8-.802.438 0 .802.364.802.801zm0 0M2.398 4.398h1.204C3.84 4.398 4 4.238 4 4c0-.238-.16-.398-.398-.398H2.398C2.16 3.602 2 3.762 2 4c0 .238.16.398.398.398zm0 0M9.2 3.602h-4c-.24 0-.4.16-.4.398 0 .238.16.398.4.398h4c.241 0 .402-.16.402-.398 0-.238-.16-.398-.403-.398zm0 0M2.398 6h2c.243 0 .403-.16.403-.398 0-.243-.16-.403-.403-.403h-2C2.16 5.2 2 5.36 2 5.602c0 .238.16.398.398.398zm0 0M7.2 6c.241 0 .402-.16.402-.398 0-.243-.16-.403-.403-.403H6c-.238 0-.398.16-.398.403 0 .238.16.398.398.398zm0 0M9.2 5.2h-.4c-.241 0-.402.16-.402.402 0 .238.16.398.403.398h.398c.242 0 .403-.16.403-.398 0-.243-.16-.403-.403-.403zm0 0M2.398 7.602h1.204c.238 0 .398-.16.398-.403 0-.238-.16-.398-.398-.398H2.398C2.16 6.8 2 6.96 2 7.199c0 .242.16.403.398.403zm0 0M9.2 6.8h-4c-.24 0-.4.16-.4.4 0 .241.16.402.4.402h4c.241 0 .402-.16.402-.403 0-.238-.16-.398-.403-.398zm0 0M2.398 9.2h2c.243 0 .403-.16.403-.4 0-.241-.16-.402-.403-.402h-2c-.238 0-.398.16-.398.403 0 .238.16.398.398.398zm0 0M7.2 9.2c.241 0 .402-.16.402-.4 0-.241-.16-.402-.403-.402H6c-.238 0-.398.16-.398.403 0 .238.16.398.398.398zm0 0M9.2 8.398h-.4c-.241 0-.402.16-.402.403 0 .238.16.398.403.398h.398c.242 0 .403-.16.403-.398 0-.242-.16-.403-.403-.403zm0 0M2.398 10.8h1.204c.238 0 .398-.16.398-.402C4 10.16 3.84 10 3.602 10H2.398c-.238 0-.398.16-.398.398 0 .243.16.403.398.403zm0 0M9.2 10h-4c-.24 0-.4.16-.4.398 0 .243.16.403.4.403h4c.241 0 .402-.16.402-.403 0-.238-.16-.398-.403-.398zm0 0M4.398 11.602h-2c-.238 0-.398.16-.398.398 0 .238.16.398.398.398h2c.243 0 .403-.16.403-.398 0-.238-.16-.398-.403-.398zm0 0M7.2 11.602H6c-.238 0-.398.16-.398.398 0 .238.16.398.398.398h1.2c.241 0 .402-.16.402-.398 0-.238-.16-.398-.403-.398zm0 0M9.2 11.602h-.4c-.241 0-.402.16-.402.398 0 .238.16.398.403.398h.398c.242 0 .403-.16.403-.398 0-.238-.16-.398-.403-.398zm0 0"/>
</svg>
